X:1625
L:1/8
M:6/8
K:D
 AFA AFA | B3 BdB | AFA AFA | fed BdB | AFA AFA | B3 BAB | def afe |1 fdB BdB :|2 fdB BAB |: 
 def afa | baf afe | def afe | fdB BAB | def afa | baf afd | g3 f3 | edB BAB :: d2 f fef | 
 fef fef | def fef | edB BAB | d2 f fef | fef fef | g3 f3 |1 edB BAB :|2 edB BdB |: Add fdd | 
 ede fdB | Add fdd | edB BAF | Add fdd | ede fed | g3 f3 |1 edB BAF :|2 edB BdB |]

